X: 819
T: The heather glen
C: anon.
O: Ireland
B: Francis O'Neill: "The Dance Music of Ireland" (1907) no. 819
R: Hornpipe
Z: Transcribed by Frank Nordberg - http://www.musicaviva.com
F: http://www.musicaviva.com/abc/tunes/ireland/oneill-1001/oneill-1001-081
9.abc
M: C|
L: 1/8
K: D
(AG)|FEFG A2(GA)|BABc dcde|fdec dBAF|B2E2 E2(AG)|FEFG A2(GA)|BABc dcde|fd
ec dBAG|F2D2 D2:|
|:g2|fefg afdf|ecA2 A2dc|BABc dfed|c2A2 ABAG|FGAB A2(GA)|BABc dcde|fdec d
BAG|F2D2 D2:|
W:
W:
W: From Musica Viva - http://www.musicaviva.com
W: the Internet center for free sheet music downloads.


